assets/icon-pants.svg

<svg
  class="icon icon-accordion icon-pants"
  aria-hidden="true"
  focusable="false"
  xmlns="http://www.w3.org/2000/svg"
  width="20"
  height="20"
  viewBox="0 0 20 20"
>
  <path d="M5.38585 1.09329C5.07555 1.09329 4.81943 1.35288 4.81943 1.66737V3.1424V3.68905V3.79657L2.58822 17.5451C2.53138 17.8619 2.74218 18.1574 3.04189 18.2081L3.04477 18.2086L7.0226 18.9029L7.0238 18.9031C7.03985 18.9058 7.05426 18.9067 7.12196 18.9067C7.2249 18.9067 7.34688 18.8779 7.49367 18.8011C7.61722 18.7011 7.68686 18.5755 7.70572 18.4512L7.70722 18.4414L9.22185 9.54571C9.37633 8.63834 10.6618 8.63833 10.8163 9.54568L12.3206 18.379C12.3651 18.656 12.5975 18.8507 12.8719 18.8507C12.9396 18.8507 12.954 18.8497 12.97 18.8471L12.9712 18.8469L16.9432 18.1536C17.1105 18.1199 17.2405 18.0327 17.3138 17.9238C17.4016 17.7932 17.4374 17.6315 17.4146 17.4768L15.1762 3.68905L15.1388 3.33082L15.1191 3.1424V1.66737C15.1191 1.35288 14.8629 1.09329 14.5526 1.09329H5.38585ZM3.74074 1.66737C3.74074 0.749069 4.47981 0 5.38585 0H14.5526C15.4587 0 16.1977 0.749069 16.1977 1.66737V3.24777L18.4804 17.3081C18.5452 17.7354 18.4484 18.1779 18.205 18.5397C17.9471 18.9231 17.548 19.149 17.1425 19.2281L17.1322 19.2301L13.1514 19.9248L13.1486 19.9253C13.0375 19.9441 12.9437 19.944 12.8803 19.944L12.8719 19.944C12.0855 19.944 11.3898 19.3778 11.2564 18.5579L11.2559 18.5552L10.0191 11.2923L8.77103 18.6229C8.70148 19.0708 8.44825 19.4502 8.10262 19.7049L8.07511 19.7252L8.04531 19.7418C7.7641 19.8986 7.45399 20 7.12196 20L7.1135 20C7.05014 20 6.95633 20.0001 6.84527 19.9813L6.8424 19.9808L2.86456 19.2865L2.86275 19.2862C1.97085 19.1345 1.36484 18.268 1.52597 17.3544L3.74074 3.70726V1.66737Z"/>
  <path d="M15.1762 3.68905H4.81943V3.1424H15.1191L15.1762 3.68905Z"/>
</svg>

<svg xmlns="http://www.w3.org/2000/svg" class="icon icon-accordion icon-pants" viewBox="0 0 20 20"><path d="M5.386 1.093c-.31 0-.567.26-.567.574v2.13L2.59 17.545a.567.567 0 0 0 .453.663h.003l3.978.695a.8.8 0 0 0 .47-.102.56.56 0 0 0 .213-.35l.001-.01 1.515-8.895c.154-.908 1.44-.908 1.594 0l1.505 8.833a.555.555 0 0 0 .55.472 1 1 0 0 0 .099-.004h.001l3.972-.693a.58.58 0 0 0 .37-.23.64.64 0 0 0 .102-.447l-2.24-13.788-.037-.358-.02-.189V1.667a.574.574 0 0 0-.566-.574zm-1.645.574A1.66 1.66 0 0 1 5.386 0h9.167c.906 0 1.645.75 1.645 1.667v1.58l2.282 14.061c.065.427-.032.87-.275 1.232a1.66 1.66 0 0 1-1.062.688l-.01.002-3.982.695h-.002c-.111.02-.205.019-.269.019h-.008a1.64 1.64 0 0 1-1.616-1.386v-.003l-1.237-7.263-1.248 7.33a1.67 1.67 0 0 1-.668 1.083l-.028.02-.03.017a1.9 1.9 0 0 1-.923.258h-.008c-.064 0-.158 0-.269-.019h-.003l-3.977-.695h-.002c-.892-.152-1.498-1.018-1.337-1.932L3.741 3.707z"/><path d="M15.176 3.689H4.82v-.547h10.3z"/></svg>
